polaris-icons/icons/new-icons/LastNonDirectClickModelMinor.svg

<svg width="20" height="20" viewBox="0 0 20 20" fill="none" xmlns="http://www.w3.org/2000/svg">
<path fill-rule="evenodd" clip-rule="evenodd" d="M4 9.5C4.41421 9.5 4.75 9.83579 4.75 10.25V16.25C4.75 16.6642 4.41421 17 4 17C3.58579 17 3.25 16.6642 3.25 16.25V10.25C3.25 9.83579 3.58579 9.5 4 9.5Z" fill="#4A4A4A"/>
<path fill-rule="evenodd" clip-rule="evenodd" d="M16 9.5C16.4142 9.5 16.75 9.83579 16.75 10.25V16.25C16.75 16.6642 16.4142 17 16 17C15.5858 17 15.25 16.6642 15.25 16.25V10.25C15.25 9.83579 15.5858 9.5 16 9.5Z" fill="#4A4A4A"/>
<path fill-rule="evenodd" clip-rule="evenodd" d="M8 9.5C8.41421 9.5 8.75 9.83579 8.75 10.25V16.25C8.75 16.6642 8.41421 17 8 17C7.58579 17 7.25 16.6642 7.25 16.25V10.25C7.25 9.83579 7.58579 9.5 8 9.5Z" fill="#4A4A4A"/>
<path fill-rule="evenodd" clip-rule="evenodd" d="M12 3C12.4142 3 12.75 3.33579 12.75 3.75V16.25C12.75 16.6642 12.4142 17 12 17C11.5858 17 11.25 16.6642 11.25 16.25V3.75C11.25 3.33579 11.5858 3 12 3Z" fill="#4A4A4A"/>
</svg>

<svg viewBox="0 0 20 20" xmlns="http://www.w3.org/2000/svg"><path fill-rule="evenodd" d="M4 9.5a.75.75 0 0 1 .75.75v6a.75.75 0 0 1-1.5 0v-6a.75.75 0 0 1 .75-.75Z" fill="#5C5F62"/><path fill-rule="evenodd" d="M16 9.5a.75.75 0 0 1 .75.75v6a.75.75 0 0 1-1.5 0v-6a.75.75 0 0 1 .75-.75Z" fill="#5C5F62"/><path fill-rule="evenodd" d="M8 9.5a.75.75 0 0 1 .75.75v6a.75.75 0 0 1-1.5 0v-6a.75.75 0 0 1 .75-.75Z" fill="#5C5F62"/><path fill-rule="evenodd" d="M12 3a.75.75 0 0 1 .75.75v12.5a.75.75 0 0 1-1.5 0v-12.5a.75.75 0 0 1 .75-.75Z" fill="#5C5F62"/></svg>
